X: 551
T:Tinker's Daughter, The
M:4/4
L:1/8
C:Vincent Broderick
R:Reel
Z:Andrew Pickering
N:Posted to the woodenflute mailing list, July 2002
K:D
A2 FA DAFA|f2 df efdB|A2 FA DAFA|B2 dB BAFB|
A2 FA DAFA|f2 df efde|f2 af bfaf|e2de fd d2:|
f2 af bfaf|defd efde|f2 df efde|1 f2 df efde|
f2 af bfaf|defd efde|f2 dfefdB|AFEG FDD2:|
2 f2 df efdB|A2 FA DAFA|f2 df efde|f2 af bfaf|e2de fd d2|

